X:403
T:Yarmouth Breakdown
R:hp 32 reel
C:Trad.
M:4/4
L:1/8
Q:1/4=140
K:D
AG|"D"FAde fdAd|fedc"Em"B2"^(G)"A2|"A"gfed cABc|ed"^(E)"cB "A"A2 AG|
"D"FAde fdAd|fedc "Em"B2"^(G)"A2|"A"gfed cABc|e2"^(G)"dc "D"d2AG:|]
"D"FDFA dAFA|"Em"G2"^(G)"F2 "A"A,2D2|CDEF GECE|"D"DE"^(G)"FG "A"A2AG|
"D"FDFA dAFA|"Em"G2"^(G)"F2 "A"A,2D2|CDEF GECE|E2"^(G)"DC "D"D2:|]

